!!!COA:	Josquin des Prez
!!!CDT:	~1450-1521/08/27
!!!OTL@@LAT:	Nesciens mater virgo virum
!!!OTL2@@LAT:	Ipsum regem angelorum
!!!AGN:	Motet
!!!SCT:	NJE 24.7
!!!SCA:	New Josquin Edition 24.7
!!!voices:	5
**kern	**kern	**kern	**kern	**kern
*staff5	*staff4	*staff3	*staff2	*staff1
*Ivox	*Ivox	*Ivox	*Ivox	*Ivox
*I"Bassus	*I"Quintus	*I"Tenor	*I"Altus	*I"Superius
*I'B	*I'Q	*I'T	*I'A	*I'S
*clefF4	*clefF4	*clefGv2	*clefGv2	*clefG2
*>[A,B]	*>[A,B]	*>[A,B]	*>[A,B]	*>[A,B]
*>A	*>A	*>A	*>A	*>A
*k[b-]	*k[b-]	*k[b-]	*k[b-]	*k[b-]
*M2/1	*M2/1	*M2/1	*M2/1	*M2/1
*met(C|)	*met(C|)	*met(C|)	*met(C|)	*met(C|)
=1-	=1-	=1-	=1-	=1-
0r	0r	0r	0r	0f
=2	=2	=2	=2	=2
0r	0r	0r	0r	1f
.	.	.	.	1f
=3	=3	=3	=3	=3
0r	0r	0r	0r	0g
=4	=4	=4	=4	=4
0F	0r	0r	0r	1f
.	.	.	.	2.cc\
.	.	.	.	4b-\
=5	=5	=5	=5	=5
1F	0r	0r	0r	4a/
.	.	.	.	4g/
.	.	.	.	2.f/
1F	.	.	.	.
.	.	.	.	4e/
.	.	.	.	[2d/
=6	=6	=6	=6	=6
0G	0r	0r	0r	2d/]
.	.	.	.	2c/
.	.	.	.	1B-
=7	=7	=7	=7	=7
1F	0r	0r	0c	1A
2.c\	.	.	.	2r
.	.	.	.	[2cc\
4B-\	.	.	.	.
=8	=8	=8	=8	=8
4A\	0r	0r	1c	4cc\]
4G\	.	.	.	4b-\
1F	.	.	.	1a
.	.	.	1c	.
2E\	.	.	.	2g/
=9	=9	=9	=9	=9
2.D\	0r	0r	0d	2.f/
4C/	.	.	.	4e/
1BB-	.	.	.	1d
=10	=10	=10	=10	=10
0FF	0F	0r	2.c\	[0a
.	.	.	4B-\	.
.	.	.	4A/	.
.	.	.	4G/	.
.	.	.	2A/	.
=11	=11	=11	=11	=11
0D	1F	0r	2F/	0a]
.	.	.	2.f\	.
.	1F	.	.	.
.	.	.	4e\	.
.	.	.	[2d\	.
=12	=12	=12	=12	=12
0GG	0G	0r	4d\]	1b-
.	.	.	4c\	.
.	.	.	4B-\	.
.	.	.	4A/	.
.	.	.	1B-	1g
=13	=13	=13	=13	=13
1D	1F	0r	0A	1a
1C	2.c\	.	.	2.a/
.	4B-\	.	.	4g/
=14	=14	=14	=14	=14
1FF	4A\	0r	2r	1f
.	4G\	.	.	.
.	1F	.	2.A/	.
1r	.	.	.	1g
.	.	.	4B-\	.
.	2E\	.	2c\	.
=15	=15	=15	=15	=15
0r	2.D\	0r	2d\	2.f/
.	.	.	1A	.
.	4C/	.	.	4e/
.	1BB-	.	.	1d
.	.	.	2G/	.
=16	=16	=16	=16	=16
2r	1AA	0F	1A	2c/
2FF/	.	.	.	2cc\
2BB-/	2r	.	1r	2dd\
2AA/	2C/	.	.	[2cc\
=17	=17	=17	=17	=17
0FF	2.F\	1F	[0c	4cc\]
.	.	.	.	4b-\
.	.	.	.	4a/
.	4E\	.	.	4g/
.	1C	1F	.	2.a/
.	.	.	.	8g/L
.	.	.	.	8f/J
=18	=18	=18	=18	=18
0C	0E	0G	0c]	2e/
.	.	.	.	1g
.	.	.	.	4f/
.	.	.	.	4e/
=19	=19	=19	=19	=19
0FF	0C	[0F	0A	0f
=20	=20	=20	=20	=20
2r	1r	0F]	[0c	1f
2.FF/	.	.	.	.
.	1C	.	.	1r
4GG/	.	.	.	.
4AA/	.	.	.	.
4BB-/	.	.	.	.
=21	=21	=21	=21	=21
2C/	1AA	0r	0c]	2r
4FF/	.	.	.	1cc
4GG/	.	.	.	.
4AA/	1FF	.	.	.
4BB-/	.	.	.	.
4C/	.	.	.	4b-\
4D\	.	.	.	4a/
=22	=22	=22	=22	=22
2E\	0C	1G	0r	1g
1F	.	.	.	.
.	.	1G	.	1g
2E\	.	.	.	.
=23	=23	=23	=23	=23
0F	2.FF/	0A	[0c	0f
.	4GG/	.	.	.
.	4AA/	.	.	.
.	4BB-/	.	.	.
.	4C/	.	.	.
.	4D\	.	.	.
=24	=24	=24	=24	=24
0C	2E\	0G	1c]	0r
.	1F	.	.	.
.	.	.	1c	.
.	2E\	.	.	.
=25	=25	=25	=25	=25
1FF	1F	0F	2A/	2r
.	.	.	4F/	1cc
.	.	.	4G/	.
2r	1F	.	4A/	.
.	.	.	4B-\	.
2FF/	.	.	4c\	4b-\
.	.	.	4d\	4a/
=26	=26	=26	=26	=26
2AA/	2E\	0r	2e\	2g/
2BB-/	2D\	.	1f	2f/
1C	1E	.	.	1g
.	.	.	2e\	.
=27	=27	=27	=27	=27
[0FF	0C	0r	[0f	0f
=28	=28	=28	=28	=28
0FF]	2r	0r	0f]	2r
.	2F\	.	.	2a/
.	2D\	.	.	2f/
.	2F\	.	.	[2a/
=29	=29	=29	=29	=29
0r	2.C/	0r	0r	4a/]
.	.	.	.	4g/
.	.	.	.	1f
.	4BB-/	.	.	.
.	1C	.	.	.
.	.	.	.	2e/
=30	=30	=30	=30	=30
2r	0FF	0r	2r	0f
2F\	.	.	2a\	.
2D\	.	.	2f\	.
2F\	.	.	[2a\	.
=31	=31	=31	=31	=31
2.C/	0r	0r	4a\]	0r
.	.	.	4g\	.
.	.	.	1f	.
4BB-/	.	.	.	.
1C	.	.	.	.
.	.	.	2e\	.
=32	=32	=32	=32	=32
0FF	0r	1.F	0f	2r
.	.	.	.	1cc
.	.	2F/	.	2cc\
=33	=33	=33	=33	=33
2r	2r	[0F	2r	0cc
1FF	1C	.	1c	.
2FF/	2C/	.	2c\	.
=34	=34	=34	=34	=34
0FF	0C	0F_	1c	2.a/
.	.	.	.	4b-\
.	.	.	1A	1cc
=35	=35	=35	=35	=35
0BB-	0D	0F]	1.B-	2b-\
.	.	.	.	1dd
.	.	.	4A/	2b-\
.	.	.	4G/	.
=36	=36	=36	=36	=36
1AA	1C	1A	1F	1cc
1GG	2D\	[1B-	1G	[1b-
.	[2BB-/	.	.	.
=37	=37	=37	=37	=37
2r	2BB-/]	1B-]	[0d	2b-\]
1GG	2BB-/	.	.	1b-
.	1BB-	[1B-	.	.
2GG/	.	.	.	4a/
.	.	.	.	4g/
=38	=38	=38	=38	=38
0D	0F	2B-\]	0d]	2f/
.	.	4A/	.	1a
.	.	4G/	.	.
.	.	1A	.	.
.	.	.	.	4g/
.	.	.	.	4f/
=39	=39	=39	=39	=39
1GG	1D	0G	0B-	0g
2r	2r	.	.	.
2GG/	2D\	.	.	.
=40	=40	=40	=40	=40
1AA	2C/	0r	0r	0r
.	2AA/	.	.	.
1BB-	1D	.	.	.
=41	=41	=41	=41	=41
2AA/	1C	0r	2r	0r
2FF/	.	.	2c\	.
1GG	1BB-	.	2d\	.
.	.	.	2B-\	.
=42	=42	=42	=42	=42
2FF/	2AA/	1r	1c	0r
1F	2FF/	.	.	.
.	1GG	1G	1B-	.
2E\	.	.	.	.
=43	=43	=43	=43	=43
1F	2FF/	1A	2A/	0r
.	1F	.	2F/	.
1r	.	1B-	1G	.
.	2E\	.	.	.
=44	=44	=44	=44	=44
0r	1F	2A/	2F/	0r
.	.	2F/	1f	.
.	1C	1G	.	.
.	.	.	2e\	.
=45	=45	=45	=45	=45
1C	0FF	0F	2f\	0r
.	.	.	2.c\	.
1C	.	.	.	.
.	.	.	4B-\	.
.	.	.	4A/	.
.	.	.	4G/	.
=46	=46	=46	=46	=46
0D	2r	0r	3.F/V	1f
.	2F\	.	6G/	.
.	.	.	3A/Z	.
.	2D\	.	3.B-\V	1f
.	2F\	.	6c\	.
.	.	.	3d\Z	.
=47	=47	=47	=47	=47
0C	0E	0r	2e\	0g
.	.	.	1g	.
.	.	.	4f\	.
.	.	.	4e\	.
=48	=48	=48	=48	=48
0FF	0C	0F	0f	1f
.	.	.	.	4f/
.	.	.	.	4g/
.	.	.	.	4a/
.	.	.	.	4f/
=49	=49	=49	=49	=49
2r	0r	0F	1c	1.a
2F\	.	.	.	.
2D\	.	.	2d\	.
2F\	.	.	4A/	4g/
.	.	.	4B-\	4f/
=50	=50	=50	=50	=50
0C	0r	0G	0c	2e/
.	.	.	.	1f
.	.	.	.	2e/
=51	=51	=51	=51	=51
0FF	0r	0F	0A	[0f
=52	=52	=52	=52	=52
1.BB-	1.D	0r	1.B-	0f]
2BB-/	2D\	.	2B-\	.
=53	=53	=53	=53	=53
1BB-	0D	0r	0B-	1r
1BB-	.	.	.	[1f
=54	=54	=54	=54	=54
0FF	0C	1.F	0A	2f/]
.	.	.	.	2f/
.	.	.	.	2.f/
.	.	2F/	.	.
.	.	.	.	4g/
=55	=55	=55	=55	=55
1r	0FF	2.F/	1.d	2a/
.	.	.	.	4d/
.	.	4G/	.	4e/
1F	.	2A/	.	4f/
.	.	.	.	4g/
.	.	4D/	2d\	[2a/
.	.	4E/	.	.
=56	=56	=56	=56	=56
[0D	1r	4F/	[0d	2a/]
.	.	4G/	.	.
.	.	1A	.	4d/
.	.	.	.	4e/
.	[1F	.	.	4f/
.	.	.	.	4g/
.	.	2F/	.	[2a/
=57	=57	=57	=57	=57
0D]	2F\]	1B-	0d]	4a/]
.	.	.	.	4g/
.	2F\	.	.	1g
.	1F	1A	.	.
.	.	.	.	2f/
=58	=58	=58	=58	=58
1GG	0D	[0Gl	1B-	1g
2r	.	.	1r	2r
[2C/	.	.	.	[2e/
=59	=59	=59	=59	=59
4C/]	2r	0G_	1.c	4e/]
4D\	.	.	.	4f/
2E\	2.C/	.	.	2g/
1C	.	.	.	2.e/
.	4D\	.	.	.
.	2E\	.	2c\	.
.	.	.	.	4f/
=60	=60	=60	=60	=60
1r	1C	0G_	0c	1.g
2r	1r	.	.	.
[2C/	.	.	.	2e/
=61	=61	=61	=61	=61
4C/]	2r	0G_	0c	1e
4D\	.	.	.	.
2E\	2.C/	.	.	.
1C	.	.	.	2r
.	4D\	.	.	.
.	2E\	.	.	[2e/
=62	=62	=62	=62	=62
1.E	1C	0G_	0r	4e/]
.	.	.	.	4f/
.	.	.	.	2g/
.	[1E	.	.	2.e/
2C/	.	.	.	.
.	.	.	.	4f/
=63	=63	=63	=63	=63
[0Cl	2E\]	0G_	2r	1.g
.	2C/	.	2.c\	.
.	1C	.	.	.
.	.	.	4d\	.
.	.	.	2e\	2e/
=64	=64	=64	=64	=64
0C_	2r	0G_	1c	[0el
.	2.C/	.	.	.
.	.	.	[1e	.
.	4D\	.	.	.
.	2E\	.	.	.
=65	=65	=65	=65	=65
0C]	0Cl	0G]	2e\]	0e]
.	.	.	2c\	.
.	.	.	1cl	.
!!LO:LB:i:g=z
=66||	=66||	=66||	=66||	=66||
*>B	*>B	*>B	*>B	*>B
*k[b-]	*k[b-]	*k[b-]	*k[b-]	*k[b-]
*M2/1	*M2/1	*M2/1	*M2/1	*M2/1
*met(C|)	*met(C|)	*met(C|)	*met(C|)	*met(C|)
!!section: Secunda pars: Ipsum regem angelorum
!!!OMD: Secunda pars: Ipsum regem angelorum
0r	0r	0G	0r	0r
=67	=67	=67	=67	=67
0r	0r	1G	0r	0r
.	.	1A	.	.
=68	=68	=68	=68	=68
0r	0C	2G/	0r	0r
.	.	4C/	.	.
.	.	4D/	.	.
.	.	4E/	.	.
.	.	4F/	.	.
.	.	2G/	.	.
=69	=69	=69	=69	=69
0r	1C	2C/	0r	0r
.	.	2.c\	.	.
.	1D	.	.	.
.	.	4Bni\	.	.
.	.	4Bni\	.	.
.	.	4A/	.	.
=70	=70	=70	=70	=70
0FF	2C/	0c	0r	0r
.	4FF/	.	.	.
.	4GG/	.	.	.
.	4AA/	.	.	.
.	4BB-/	.	.	.
.	2C/	.	.	.
=71	=71	=71	=71	=71
1FF	2FF/	2r	0r	0r
.	1F	2A/	.	.
1GG	.	2B-\	.	.
.	2E\	2G/	.	.
=72	=72	=72	=72	=72
2.FF/	1F	2.A/	[0c	2r
.	.	.	.	2.c/
4GG/	.	4B-\	.	.
4AA/	1r	1c	.	.
4BB-/	.	.	.	4B-/
2C/	.	.	.	2G/
=73	=73	=73	=73	=73
2FF/	2r	2r	0c_	1A
1F	4FF/	2.c\	.	.
.	4GG/	.	.	.
.	4AA/	.	.	1r
.	4BB-/	4B-\	.	.
2E\	2C/	2G/	.	.
=74	=74	=74	=74	=74
2F\	2FF/	1A	0c]	2r
4FF/	1F	.	.	2.c/
4GG/	.	.	.	.
4AA/	.	1r	.	.
4BB-/	.	.	.	4B-/
2C/	2E\	.	.	2G/
=75	=75	=75	=75	=75
2FF/	1F	0r	1c	1A
2F\	.	.	.	.
2.D\	1BB-	.	1d	1B-
4E\	.	.	.	.
=76	=76	=76	=76	=76
1F	1FF	2r	2c\	2A/
.	.	2A/	2f\	2a/
2G\	2r	2B-\	2.d\	2g/
2D\	[2F\	[2A/	.	[2a/
.	.	.	4c\	.
=77	=77	=77	=77	=77
1F	4F\]	4A/]	2.A/	2a/]
.	4G\	4B-\	.	.
.	1A	1c	.	4g/
.	.	.	4B-\	4f/
[1C	.	.	1c	2.e/
.	4G\	4B-\	.	.
.	4F\	4A/	.	4d/
=78	=78	=78	=78	=78
0C]	0E	2.G/	2r	4e/
.	.	.	.	4c/
.	.	.	2.c\	1g
.	.	4F/	.	.
.	.	1G	.	.
.	.	.	4B-\	.
.	.	.	4A/	4f/
.	.	.	4G/	4e/
=79	=79	=79	=79	=79
0FF	[0C	4F/	2A/	0f
.	.	4G/	.	.
.	.	4A/	4F/	.
.	.	4B-\	4G/	.
.	.	4c\	4A/	.
.	.	4d\	4B-\	.
.	.	[2c\	4c\	.
.	.	.	4d\	.
=80	=80	=80	=80	=80
0C	0C]	2c\]	4c\	1r
.	.	.	4F/	.
.	.	4B-\	1f	.
.	.	4A/	.	.
.	.	1G	.	1g
.	.	.	2e\	.
=81	=81	=81	=81	=81
1FF	2r	4F/	0f	1a
.	.	4G/	.	.
.	2F\	4A/	.	.
.	.	4B-\	.	.
1r	2C/	2c\	.	[1a
.	[2F\	[2d\	.	.
=82	=82	=82	=82	=82
0r	2F\]	4d\]	1r	2a/]
.	.	4c\	.	.
.	2E\	1c	.	2g/
.	1D	.	1F	2f/
.	.	2Bni\	.	2d/
=83	=83	=83	=83	=83
0r	1C	[0c	2G/	4e/
.	.	.	.	4c/
.	.	.	2.A/	1f
.	2r	.	.	.
.	.	.	4F/	.
.	2C/	.	2G/	2e/
=84	=84	=84	=84	=84
2r	4F\	1c]	1F	1f
.	4G\	.	.	.
2F\	4A\	.	.	.
.	4B-\	.	.	.
2C/	2c\	1r	1r	1r
[2F\	[2d\	.	.	.
=85	=85	=85	=85	=85
2F\]	2d\]	1r	0r	0r
2E\	1c	.	.	.
1D	.	1F	.	.
.	2Bni\	.	.	.
=86	=86	=86	=86	=86
0C	0c	1.G	1r	0r
.	.	.	2r	.
.	.	2G/	4C/	.
.	.	.	4D/	.
=87	=87	=87	=87	=87
1r	2r	1G	4E/	1g
.	.	.	4F/	.
.	2C/	.	4G/	.
.	.	.	4A/	.
2r	2G\	1r	4B-\	2d/
.	.	.	4c\	.
[2BB-/	2D\	.	[2d\	[2f/
=88	=88	=88	=88	=88
2BB-/]	2F\	1r	2d\]	2f/]
2C/	2C/	.	1c	2e/
1GG	1G	2r	.	1d
.	.	2G/	2Bni\	.
=89	=89	=89	=89	=89
[0C	0C	2.G/	2.c\	1c
.	.	8F/L	4c\	.
.	.	8G/J	.	.
.	.	2A/	2.c\	2r
.	.	2G/	.	2g/
.	.	.	4d\	.
=90	=90	=90	=90	=90
0C_	1r	1E	2e\	2.g/
.	.	.	2c\	.
.	.	.	.	8f/L
.	.	.	.	8g/J
.	2r	1r	1c	2a/
.	2G\	.	.	2g/
=91	=91	=91	=91	=91
0C_	2.G\	0r	2r	1e
.	.	.	2c\	.
.	8F\L	.	.	.
.	8G\J	.	.	.
.	2A\	.	2.c\	2r
.	2G\	.	.	2g/
.	.	.	4d\	.
=92	=92	=92	=92	=92
0C_	1E	1r	2e\	2.g/
.	.	.	2c\	.
.	.	.	.	8f/L
.	.	.	.	8g/J
.	1r	2r	1c	2a/
.	.	2G/	.	2g/
=93	=93	=93	=93	=93
0C_	0E	2.G/	0c	2e/
.	.	.	.	2.cc\
.	.	8F/L	.	.
.	.	8G/J	.	.
.	.	2A/	.	.
.	.	.	.	4b-\
.	.	[2c\	.	2a/
=94	=94	=94	=94	=94
0C]	1E	2c\]	1c	4g/
.	.	.	.	4f/
.	.	4B-\	.	1g
.	.	4A/	.	.
.	1E	1G	1c	.
.	.	.	.	4f/
.	.	.	.	4e/
=95	=95	=95	=95	=95
0FF	1C	[0F	[0c	[0f
.	2r	.	.	.
.	2C/	.	.	.
=96	=96	=96	=96	=96
1r	2D\	0F]	0c]	0f]
.	2E\	.	.	.
1FF	2.F\	.	.	.
.	4E\	.	.	.
=97	=97	=97	=97	=97
2GG/	2D\	1r	0r	0r
2AA/	2C/	.	.	.
2BB-/	1D	1F	.	.
2D\	.	.	.	.
=98	=98	=98	=98	=98
1C	0r	2G/	0r	1r
.	.	2A/	.	.
1BB-	.	2B-\	.	1f
.	.	2d\	.	.
=99	=99	=99	=99	=99
0r	0r	1c	2r	2g/
.	.	.	2F/	2a/
.	.	2B-\	2G/	2b-\
.	.	2F/	2A/	[2cc\
=100	=100	=100	=100	=100
0r	1r	1G	2B-\	4cc\]
.	.	.	.	4b-\
.	.	.	2d\	1b-
.	2r	1r	1c	.
.	2F\	.	.	2a/
=101	=101	=101	=101	=101
2r	1G	0r	1B-	1b-
2.B-\	.	.	.	.
.	1F	.	1r	1r
4A\	.	.	.	.
4A\	.	.	.	.
4G\	.	.	.	.
=102	=102	=102	=102	=102
1B-	1BB-	0r	0r	0r
[1BB-	2r	.	.	.
.	[2F\	.	.	.
=103	=103	=103	=103	=103
1BB-]	2F\]	0r	0r	0r
.	4E\	.	.	.
.	4D\	.	.	.
1C	1E	.	.	.
=104	=104	=104	=104	=104
1D	2.F\	1r	0r	0r
.	4E\	.	.	.
1D	2D\	2r	.	.
.	2BB-/	[2B-\	.	.
=105	=105	=105	=105	=105
0r	2D\	2B-\]	1r	0r
.	2E-\	4A/	.	.
.	.	4G/	.	.
.	1C	1A	1c	.
=106	=106	=106	=106	=106
0r	0BB-	2.B-\	2.d\	0r
.	.	4A/	4c\	.
.	.	2G/	4d\	.
.	.	.	4e\	.
.	.	2F/	[2f\	.
=107	=107	=107	=107	=107
1r	0r	2A/	2f\]	0r
.	.	2B-\	4e\	.
.	.	.	4d\	.
1C	.	1G	1e	.
=108	=108	=108	=108	=108
2.D\	0r	0F	2.f\	1r
4C/	.	.	4e\	.
4D\	.	.	2.d\	[1f
4E\	.	.	.	.
[2F\	.	.	.	.
.	.	.	4c\	.
=109	=109	=109	=109	=109
2F\]	1r	1r	2A/	1f]
4E\	.	.	2B-\	.
4D\	.	.	.	.
1E	1C	2r	1G	1g
.	.	2c\	.	.
=110	=110	=110	=110	=110
2.F\	2FF/	1c	1F	2.a/
.	1F	.	.	.
4E\	.	.	.	4g/
1D	.	2.F/	2r	2a/
.	2BB-/	.	2d\	[2b-\
.	.	4G/	.	.
=111	=111	=111	=111	=111
1r	1F	2A/	1d	4b-\]
.	.	.	.	4a/
.	.	2c\	.	1a
2r	1G	1B-	2.d\	.
2GG/	.	.	.	2g/
.	.	.	4e\	.
=112	=112	=112	=112	=112
1.D	1.F	0A	2f\	0a
.	.	.	4F/	.
.	.	.	4G/	.
.	.	.	4A/	.
.	.	.	4B-\	.
2C/	2E\	.	[2c\	.
=113	=113	=113	=113	=113
2AA/	1E	1c	4c\]	1a
.	.	.	4B-\	.
2C/	.	.	1A	.
1BB-	1D	1d	.	1b-
.	.	.	2G/	.
=114	=114	=114	=114	=114
0AA	0E	[0c	[0A	1cc
.	.	.	.	2r
.	.	.	.	2a/
=115	=115	=115	=115	=115
2r	1r	0c]	1A]	2a/
4A\	.	.	.	4cc\
4G\	.	.	.	4b-\
4F\	1A	.	1r	4a/
4E\	.	.	.	4g/
[2F\	.	.	.	[2a/
=116	=116	=116	=116	=116
2F\]	1A	0r	0r	2a/]
4E\	.	.	.	4g/
4D\	.	.	.	4f/
2.C/	[1c	.	.	2.e/
4D\	.	.	.	4f/
=117	=117	=117	=117	=117
2E\	2c\]	0r	1r	4g/
.	.	.	.	4e/
2F\	2A\	.	.	2.a/
1G	1B-	.	2r	.
.	.	.	.	4g/
.	.	.	[2d\	4g/
.	.	.	.	4f/
=118	=118	=118	=118	=118
2D\	0A	0r	2d\]	2a/
2AA/	.	.	2c\	1cc
2C/	.	.	2e\	.
2D\	.	.	2f\	4b-\
.	.	.	.	4a/
=119	=119	=119	=119	=119
1GG	0r	1G	3g\V	1b-
.	.	.	3d\	.
.	.	.	3e\Z	.
1D	.	1F	1f	2r
.	.	.	.	2a/
=120	=120	=120	=120	=120
2r	1G	0r	2B-\	4b-\
.	.	.	.	4a/
2G\	.	.	2B-\	4g/
.	.	.	.	4f/
2C/	1G	.	2c\	2e/
2G\	.	.	[2d\	[2g/
=121	=121	=121	=121	=121
2D\	1A	0r	2d\]	4g/]
.	.	.	.	4f/
2F\	.	.	2.c\	4e/
.	.	.	.	4d/
1C	1G	.	.	1e
.	.	.	4B-\	.
.	.	.	2c\	.
=122	=122	=122	=122	=122
2FF/	2r	0F	1A	[0fl
2.F\	2.A\	.	.	.
.	.	.	2r	.
4E\	4G\	.	.	.
[2D\	[2F\	.	[2A/	.
=123	=123	=123	=123	=123
4D\]	4F\]	[0Fl	2A/]	0f_
4C/	4E\	.	.	.
2BB-/	2D\	.	2B-\	.
2AA/	2C/	.	2c\	.
2BB-/	2D\	.	2B-\	.
=124	=124	=124	=124	=124
[0FFl	[0Cl	0F_	2A/	0f_
.	.	.	2F/	.
.	.	.	2.A/	.
.	.	.	4B-\	.
=125	=125	=125	=125	=125
0FF]	0C]	0F]	0cl	0f]
==	==	==	==	==
*-	*-	*-	*-	*-
!!!RDF**kern: l=long note in original notation
!!!RDF**kern: i=editorial accidental
!!!RDF**kern: V=start of tuplet marker
!!!RDF**kern: Z=end of tuplet marker
!!!ENC:	Joel Chapman 2012/1/28
!!!END:	2012/01/28/
!!!EED:	Jesse Rodin
!!!EEV:	2012/02/02/
!!attribution-level@Jos: 4 (questionable)
!!!ONB:	Translated from MusicXML and edited on 2012/02/02/ by Craig Sapp
!!muse2ps: u^(2) @{OTL2}^C^@{COA}?\n@{SCT}^i2I150v95,95,95,95,130c100Q16
